X: 34991
T: Roger MacMun
R: hornpipe
M: 4/4
K: Fmajor
BA|AcAc fcAc|BdBd fdBd|cegb agfe|gfed cdcB|
AcAc fcAc|BdBd fdBd|cegb agfe|f2f2 f2||
ef|gece gece|afcf afcf|gfga g2 ga|gfed c4|
cege cege|cfaf cfaf|bagf efga|f2f2 f2||

